assets/Jack-o-lantern/Flat/jack-o-lantern_flat.svg

<svg width="32" height="32" viewBox="0 0 32 32" fill="none" xmlns="http://www.w3.org/2000/svg">
<path d="M13.7434 8H17.2495C17.6569 8 18 7.72792 18 7.38563V4.61217C18 4.07678 17.2066 3.79593 16.7348 4.17333L13.2288 6.95556C12.7463 7.33297 13.0787 8 13.7434 8Z" fill="#86D72F"/>
<path d="M21.4384 29H10.5674C4.85109 29 0.739367 23.4263 2.35397 17.8627L3.69781 13.2349C4.77087 9.54276 8.11039 7 11.9112 7H20.1447C23.9756 7 27.3453 9.58345 28.3882 13.3366L29.6719 17.9644C31.2163 23.5076 27.1146 29 21.4384 29Z" fill="#FF8257"/>
<path d="M9.41288 15H11.585C11.9381 15 12.13 14.5663 11.8997 14.2852L10.7868 13.1527C10.6179 12.9438 10.3186 12.9519 10.1497 13.1607L9.09052 14.2932C8.87561 14.5743 9.06749 15 9.41288 15Z" fill="#321B41"/>
<path d="M20.4129 15H22.585C22.9381 15 23.13 14.5663 22.8997 14.2852L21.7868 13.1527C21.6179 12.9438 21.3186 12.9519 21.1497 13.1607L20.0905 14.2932C19.8756 14.5743 20.0675 15 20.4129 15Z" fill="#321B41"/>
<path d="M21.3829 17H24C24 20.3657 21.4523 23.1944 18.0025 24C17.6059 23.4898 16.8823 22.7737 15.9603 22.7737C14.8699 22.7737 14.2057 23.4629 13.8686 23.9642C10.4882 23.1228 8 20.321 8 17H10.6072C11.0235 17.5013 11.7175 18.1458 12.5898 18.1458C13.6506 18.1458 14.3048 17.5013 14.6518 17H17.3383C17.7546 17.5013 18.4486 18.1458 19.3209 18.1458C20.3817 18.1458 21.0359 17.5013 21.3829 17Z" fill="#321B41"/>
</svg>

<svg xmlns="http://www.w3.org/2000/svg" width="32" height="32" fill="none"><path fill="#86D72F" d="M13.743 8h3.507c.407 0 .75-.272.75-.614V4.612c0-.535-.793-.816-1.265-.439l-3.506 2.783c-.483.377-.15 1.044.514 1.044Z"/><path fill="#FF8257" d="M21.438 29h-10.87C4.85 29 .738 23.426 2.353 17.863l1.344-4.628C4.77 9.543 8.11 7 11.91 7h8.234c3.83 0 7.2 2.583 8.243 6.337l1.284 4.627C31.216 23.508 27.115 29 21.438 29Z"/><path fill="#321B41" d="M9.413 15h2.172c.353 0 .545-.434.315-.715l-1.113-1.132a.402.402 0 0 0-.637.008l-1.06 1.132c-.214.281-.023.707.323.707ZM20.413 15h2.172c.353 0 .545-.434.315-.715l-1.113-1.132a.402.402 0 0 0-.637.008l-1.06 1.132c-.214.281-.023.707.323.707ZM21.383 17H24c0 3.366-2.548 6.194-5.997 7-.397-.51-1.12-1.226-2.043-1.226-1.09 0-1.754.689-2.091 1.19C10.489 23.123 8 20.321 8 17h2.607c.417.501 1.11 1.146 1.983 1.146 1.06 0 1.715-.645 2.062-1.146h2.686c.417.501 1.11 1.146 1.983 1.146 1.06 0 1.715-.645 2.062-1.146Z"/></svg>
